X:1
T:34
T:34
T:Études enfantines op. 37
T:Henry Lemoine
C:Henry Lemoine
%%score { ( 1 3 ) | ( 2 4 ) }
L:1/8
Q:3/8=80
M:3/8
K:G
V:1 treble nm="Piano" snm="Pno."
V:3 treble 
V:2 bass 
V:4 bass 
V:1
!p!"^Allegro quasi andantino" .!3!B.!2!B.!1!B | (3(!3!g/a/g/ .f).e | (3(!3!^d/e/d/ .^c).d | %3
 (!>!e2 .B) | (3(!3!B/=c/B/ .^A).B | .!1!B.!4!f!^!B- | B.!3!e.g | [^df]2 z | %8
!<(! .!1!B.!2!B.!1!B!<)! |!f! (3(!3!g/a/g/ .f).e | (3(!3!=d/e/d/ .^c).d | (!>!e2 d) | %12
 (3(!3!d/e/d/) .c.A | (!3!^AB).!1!G | (!3!^G=A).F | .=G z z :| (3(!3!B/c/B/ .!2!^A).!1!B | %17
!<(! (3(!3!c/d/c/ .!2!B).!1!c!<)! |!f! (!5!a!>(!!3!f!2!d | !4!g2) z!>)! | %20
!p! (3(!3!B/c/B/ .!2!^A).!1!B |!<(! (3(!3!c/d/c/ .!2!B).!1!c!<)! |!f! (!5!a!>(!!3!f!2!d | %23
 !4!g2) z!>)! |!p! (3(!3!g/a/g/ .=f).d | (!>!!3!^d2 e) |"_cresc." (3(!3!e/=f/e/ .=d).!1!B | %27
 (!>!!3!d2 .c) | (3(!3!c/d/c/ .B).!1!A | (!>!!2!AG)!f! (!^!e- |!>(! e.!1!A).^A | B2!>)! z | %32
!p! (3(!3!^d/e/d/ .^c).B |"_cresc." (!>!!2!^A2 .f) | (!>!^A2 .f) | B2 z |!p! (3(!3!^d/e/d/ .^c).B | %37
"_cresc." .!2!^A.!5!f.A | .!^!f.^A.f |!f! (!>!!4!f2 .B) |!p! (3(!3!^d/e/d/ .^c).B | (!2!^A2 !3!^c | %42
 e2 ^A | .!1!B) z z |!p! .!3!B.!2!B.!1!B | (3(!3!g/a/g/ .f).e | (3(!3!^d/e/d/ .^c).d | (!>!e2 B) | %48
 (3(!3!B/=c/B/ .!2!^A).!1!B | .!1!B.!4!f!^!B- | B.!3!e.!5!g | [^df]2 z |!<(! .!1!B.!2!B.!1!B!<)! | %53
!f! (3(!3!g/a/g/ .f).e | (3(!3!e/f/e/ .=d).c | (!>!!2!c2 .B) |"_dim." (3(!2!A/B/A/ .!1!G).!2!F | %57
"_poco rallentando" (3(!3!G/A/G/ .!1!F).E |!p! (!2!^D.B).D | !1!E2 z |] %60
V:2
 z3 | [E,G,B,]3 | [E,A,B,]3 | [E,G,B,]2 z |[K:treble] !3!!1![EG]3 | !4!!1![^DA]3 | !3!!1![EG]3 | %7
 !5!!2![B,F]2 z | z3 |[K:bass] !4!!2![E,G,]3 | !1!!3![F,A,]3 | %11
 (!5!!3![G,B,]!4!!2![A,C]!3!!1![B,D] | !2!!1![CE]2) z | !2!D2 z | ([D,C]3 | .!4!!2![G,B,]) z z :| %16
[K:treble] !5!!2![G,D]3 | !5!!1![G,E]3 | [G,D]3 | (G,DG) | [G,=F]3 | !5!!1![G,E]3 | !5!!2![G,D]3- | %23
 [G,D] .!1!G.!2!G | !5!!1![B,G]3 | !4!!1![CG]3 | !5!!1![^G,E]3 | !5!!1![A,E]3 | (!2!^D2 !1!F | %29
 !2!E3) | !4!!2![CE]3 | z !3!!1![^DF][DF] | z !3!!1![^DF][DF] | z !2!!1![EF][EF] | %34
 z !2!!1![EF][EF] | z !3!!1![^DF][DF] | z !3!!1![^DF][DF] | z !2!!1![EF][EF] | z !2!!1![EF][EF] | %39
 z !3!!1![^DF][DF] | z !3!!1![^DF][DF] | z !3!!1![E=G][EG] | z !3!!1![E=G][EG] | [^DF] z z | z3 | %45
[K:bass] [E,G,B,]3 | [E,A,B,]3 | [E,G,B,]2 z |[K:treble] !3!!1![EG]3 | !4!!1![^DA]3 | !3!!1![EG]3 | %51
 !5!!2![B,F]2 z | z3 |[K:bass] !5!!3![E,G,]3 | !5![F,=D]3 | !4![G,D]2 z | !2!!1![CE]3 | %57
 .[B,E] z z | [B,,F,A,]2 .[B,,F,A,] | [E,G,]2 z |] %60
V:3
 x3 | x3 | x3 | x3 | x3 | x3 | x3 | x3 | x3 | x3 | x3 | x3 | x3 | x3 | x3 | x3 :| x3 | x3 | !1!c3 | %19
 !1!B2 z | x3 | x3 | !1!c3 | !1!B2 z | x3 | x3 | x3 | x3 | x3 | x3 | x3 | x3 | x3 | x3 | x3 | x3 | %36
 x3 | x3 | x3 | x3 | x3 | x3 | x3 | x3 | x3 | x3 | x3 | x3 | x3 | x3 | x3 | x3 | x3 | x3 | x3 | %55
 x3 | x3 | x3 | x3 | x3 |] %60
V:4
 x3 | x3 | x3 | x3 |[K:treble] x3 | x3 | x3 | x3 | x3 |[K:bass] x3 | x3 | x3 | x3 | x3 | x3 | x3 :| %16
[K:treble] x3 | x3 | x3 | x3 | x3 | x3 | x3 | x3 | x3 | x3 | x3 | x3 | !4!B,3 | !3!C3 | x3 | %31
 !5!B,3 | !5!B,3 | !5!B,3 | !5!B,3 | !5!B,3 | !5!B,3 | !5!B,3 | !5!B,3 | !5!B,3 | !5!B,3 | !5!B,3 | %42
 !5!B,3 | B, z z | x3 |[K:bass] x3 | x3 | x3 |[K:treble] x3 | x3 | x3 | x3 | x3 |[K:bass] x3 | x3 | %55
 x3 | x3 | x3 | x3 | x3 |] %60

